X:1
T:As Mary through the Brambles Passed
T:Hugo Distler
T:Trad.
T:2. As Mary through the Thornwood Passed Maria durch ein' Dornwald ging Advent
T:Bärenreiter
T:Bärenreiter
T:Bärenreiter
T:Bärenreiter
C:Hugo Distler
Z:Trad.
Z:Bärenreiter
%%score [ 1 ( 2 3 ) 4 ]
L:1/8
Q:1/4=60
M:4/4
K:Bb
V:1 treble nm="Sop."
V:2 treble nm="Alto"
V:3 treble 
V:4 bass nm="Bar."
V:1
 D2 | G3 A B2 d2 | B2 (AG) !breath!A4 | B2 BB c4 |[M:6/4] d8 z2 (Bc) |[M:4/4] d3 d d2 f2 | %6
w: 1. As|Ma- ry through the|thorn- wood _ passed,|ky- ri- e- lei-|son! As _|Ma- ry through the|
 c3 B !breath!c2 dd | B3 A BBcB | A3 G !breath!A4 | (G3 A) B2 d2 | (B3 A) !breath!G2 D2 || %11
w: thorn- wood passed, where- for|sev- en years no leaves had|e'er been seen,|Je- * sus and|Ma- * ry! 2. And|
 G3 A B2 d2 | B2 AG !breath!A4 | B2 BB c4 |[M:6/4] d8 z2 (Bc) |[M:4/4] d3 d d2 f2 | %16
w: what did Ma- ry|bear 'neath her heart?|Ky- ri- e- lei-|son! A _|ti- ny pain- less|
 c3 B !breath!c2 d2 | B3 A BBcB | A3 G !breath!A4 | (G3 A) B2 d2 | (B3 A) !breath!G2 D2 || %21
w: ba- by boy, a|child did Ma- ry bear be-|neath her heart.|Je- * sus and|Ma- * ry! 3. And|
 G2 GA B2 d2 |[M:6/4] (cB) AG D4 !breath!A4 |[M:4/4] B2 BB c4 | d4 z2 Bc | d4 d2 df | %26
w: then all the thorns be-|gan _ bear- ing ro- ses.|Ky- ri- e- lei-|son! As the|Christ child through the|
[M:3/4] cc !breath!c2 fd |[M:6/8] BBB c2 B |[M:6/4] A2 (Ad) !breath!A8 |[M:4/4] (G3 A B2 c2- | %30
w: thorns was borne, all the|bram- bles and thorns with|ro ses _ bloomed.|Je- * * *|
 c2 B2) A2 G2 | A4 =B4 |] %32
w: * * sus and|Ma- ry!|
V:2
 z2 | z8 | z8 | D3 F FE B2 |[M:6/4] (A4 G4) z2 B2 |[M:4/4] A2 A3 A A2 | A2 AA (G3 F | E2 D4) C2 | %8
w: |||1. Ky- ri- e- * lei-|son! _ As|Ma- ry, as Ma-|ry through the bram- *|* * bles|
 !breath!D8 | =E2 D3 G (G2- | GAGF) !breath!D2 z2 || z8 | z8 | D3 F (FE) B2 | %14
w: passed.|Je- sus and Ma-|* * * * ry!|||2. Ky- ri- e- * lei-|
[M:6/4] (A4 G4) z2 B2 |[M:4/4] A2 A3 A A2 | A2 AA G3 F | E2 D4 C2 | !breath!D8 | =E2 D3 G (G2- | %20
w: son! _ A|ti- ny, a ti-|ny pain- less boy she|bore 'neath her|heart.|Je- sus and Ma-|
 GAGF) !breath!D2 D2 || D2 =EF G2 F2 |[M:6/4] F2 =ED E4 !breath!^F4 |[M:4/4] A2 G=F (G2 A2) | %24
w: * * * * ry! 3. And|then all the thorns be-|gan bear ing ro- ses.|Ky- ri- e- lei- *|
 =B4 z2 G2- | GG _B2 A2 GF |[M:3/4] GG !breath!D2 _EF |[M:6/8] GGF E2 B, | %28
w: son! As|_ the Christ child through the|thorns was borne, all the|bram- bles and thorns with|
[M:6/4] F2 F2 (=E4 !breath!D4) |[M:4/4] _E4 D2 (CD | EF G3) F (ED) | C4 G4 |] %32
w: ro- ses bloomed. _|Je- sus, Je- *|* * * sus and _|Ma- ry!|
V:3
 x2 | x8 | x8 | x8 |[M:6/4] x12 |[M:4/4] x8 | x8 | x8 | x8 | x8 | x8 || x8 | x8 | x8 |[M:6/4] x12 | %15
[M:4/4] x8 | x8 | x8 | x8 | x8 | x8 || x8 |[M:6/4] x12 |[M:4/4] x8 | x8 | x8 |[M:3/4] x6 | %27
[M:6/8] x6 |[M:6/4] x12 |[M:4/4] x8 | x8 | x4 D4 |] %32
V:4
 z2 | z8 | z8 | G,2 A,F, G,4 |[M:6/4] G,8 z4 |[M:4/4] z8 | z8 | z8 | z8 | C2 A,4 (A,G,) | %10
w: |||1. Ky- ri- e- lei-|son!|||||Je- sus and _|
 E,2 F,2 !breath!G,2 z2 || z8 | z8 | G,2 A,F, G,4 |[M:6/4] G,8 z4 |[M:4/4] z8 | z8 | z8 | z8 | %19
w: Ma- * ry!|||2. Ky- ri- e- lei-|son!|||||
 C2 A,4 (A,G,) | (E,2 F,2) !breath!G,2 B,2 || A,2 G,F, E,2 B,,2 |[M:6/4] F,2 F,F, G,4 !breath!D,4 | %23
w: Je- sus and _|Ma- * ry! 3. And|then all the thorns be-|gan bear- ing ro- ses.|
[M:4/4] D2 DD C4 | G,4 z4 | z8 |[M:3/4] z6 |[M:6/8] z6 |[M:6/4] z12 |[M:4/4] C4 B,2 (_A,2- | %30
w: Ky- ri- e- lei-|son!|||||Je- sus, Je-|
 A,2 E,2) E,2 E,2 | F,4 G,4 |] %32
w: * * sus and|Ma- ry!|

